X:1
T: Lady Mary Primrose's Favourite
C:
R:Strathspey
Q: 128
K:Bb
M:4/4
L:1/16
|:B2|F3B D3B F3G B3c|B3G GFED C4 C3B|F3B D3B F3G B3g|fB3 f3e d4 d2ef|
g3e E3g f3d D3f|e3d c3B G4 G2B2|F3G GFED F3G B3g|fB3 d3c B4 B2f1/2g1/2a|
b3f d3f B3f d3f|e3d c3B G4 G2f1/2g1/2a|b3f d3f B3f d3f|gfga bd3 f4 fgab|
geBG E2ge fdBF D2df|e3d c3B G4 G3B|F3G GFED F3G B3g|fB3 d3c B4 B2:|
